app/dist/common/images/rigel-resource-acquisition.svg

<svg height="18" viewBox="0 0 18 18" width="18" xmlns="http://www.w3.org/2000/svg"><path d="m0 0h18v18h-18z" fill="#f0f3fa"/><path d="m6 13v-8h3.1c1.76 0 3.47.52 3.47 2.33 0 1.75-2.36 2.26-3.48 2.26h-2.75l.29-.27v3.68zm6.2 0-2.98-3.65.8-.03 2.98 3.68zm-5.57-3.65-.29-.35h2.76c1.21 0 2.84-.67 2.84-1.67 0-1.5-1.35-1.76-2.84-1.76h-2.76l.29-.28z"/></svg>

<!-- by TradingView --><svg width="18" height="18" viewBox="0 0 18 18" xmlns="http://www.w3.org/2000/svg"><path fill="#F0F3FA" d="M0 0h18v18H0z"/><path d="M6 13V5h3.1c1.76 0 3.47.52 3.47 2.33 0 1.75-2.36 2.26-3.48 2.26H6.34l.29-.27V13H6Zm6.2 0L9.22 9.35l.8-.03L13 13h-.8ZM6.63 9.35 6.34 9H9.1c1.21 0 2.84-.67 2.84-1.67 0-1.5-1.35-1.76-2.84-1.76H6.34l.29-.28v4.06Z"/></svg>
